img/glass_halfplane.svg

<svg version="1.1" xmlns="http://www.w3.org/2000/svg" xmlns:xlink="http://www.w3.org/1999/xlink" width="101" height="100"><defs/><g><rect fill="black" stroke="none" x="0" y="0" width="101" height="100"/><g/><path fill="none" stroke="rgb(0,255,0)" paint-order="fill stroke markers" d=" M -32.901696392778824 40.8225314525498 L -21.604514933538844 86.20793146213985" stroke-miterlimit="10" stroke-width="4" stroke-dasharray=""/><path fill="none" stroke="rgb(128,128,128)" paint-order="fill stroke markers" d=" M -34.84247510258018 41.30562357583665 L -23.545293643340198 86.69102358542669" stroke-opacity="255" stroke-miterlimit="10" stroke-width="2" stroke-dasharray=""/><path fill="white" stroke="none" paint-order="stroke fill markers" d=" M -1771.6722628788689 -1384.8824111308884 L 1813.813659993139 1431.353804652216 L 405.6955521015868 3224.09676608822 L -3179.7903707704213 407.8605503051155" fill-opacity="0.2"/><rect fill="indigo" stroke="none" x="19.070698557135145" y="21.23569676066381" width="3" height="3"/><rect fill="indigo" stroke="none" x="81.98187780827789" y="70.64956846337957" width="3" height="3"/><path fill="none" stroke="rgb(255,255,128)" paint-order="fill stroke markers" d=" M -33.63474479436307 46.15757035034004 L 30.06628767812611 30.30132312478762" stroke-miterlimit="10" stroke-dasharray=""/><path fill="none" stroke="rgb(255,255,128)" paint-order="fill stroke markers" d=" M -31.21928417792886 55.8614638993468 L 40.02899932753208 38.12658027486649" stroke-miterlimit="10" stroke-dasharray=""/><path fill="none" stroke="rgb(255,255,128)" paint-order="fill stroke markers" d=" M -28.803823561494646 65.56535744835358 L 49.991710976938066 45.951837424945374" stroke-miterlimit="10" stroke-dasharray=""/><path fill="none" stroke="rgb(255,255,128)" paint-order="fill stroke markers" d=" M -26.38836294506043 75.26925099736034 L 59.95442262634403 53.77709457502424" stroke-miterlimit="10" stroke-dasharray=""/><path fill="none" stroke="rgb(255,255,128)" paint-order="fill stroke markers" d=" M -23.972902328626216 84.97314454636712 L 69.91713427575002 61.60235172510312" stroke-miterlimit="10" stroke-dasharray=""/><path fill="none" stroke="rgb(255,255,128)" paint-order="fill stroke markers" d=" M 30.06628767812611 30.30132312478762 L 19.093628333581236 2325.9687271090875" stroke-miterlimit="10" stroke-opacity="0.13842037312413408" stroke-dasharray=""/><path fill="none" stroke="rgb(255,255,128)" paint-order="fill stroke markers" d=" M 40.02899932753208 38.12658027486649 L 28.97131935140434 2351.581749872184" stroke-miterlimit="10" stroke-opacity="0.13842037312413408" stroke-dasharray=""/><path fill="none" stroke="rgb(255,255,128)" paint-order="fill stroke markers" d=" M 49.991710976938066 45.951837424945374 L 38.84901036923554 2377.1947726352805" stroke-miterlimit="10" stroke-opacity="0.13842037312413408" stroke-dasharray=""/><path fill="none" stroke="rgb(255,255,128)" paint-order="fill stroke markers" d=" M 59.95442262634403 53.77709457502424 L 48.72670138706671 2402.8077953983775" stroke-miterlimit="10" stroke-opacity="0.13842037312413408" stroke-dasharray=""/><path fill="none" stroke="rgb(255,255,128)" paint-order="fill stroke markers" d=" M 69.91713427575002 61.60235172510312 L 58.604392404914734 2428.4208181614736" stroke-miterlimit="10" stroke-opacity="0.13842037312413408" stroke-dasharray=""/><path fill="none" stroke="rgb(255,255,128)" paint-order="fill stroke markers" d=" M 30.06628767812611 30.30132312478762 L 2245.3942487043855 632.4070065926843" stroke-miterlimit="10" stroke-opacity="0.861579626875866" stroke-dasharray=""/><path fill="none" stroke="rgb(255,255,128)" paint-order="fill stroke markers" d=" M 40.02899932753208 38.12658027486649 L 2272.522223256557 644.8976236956881" stroke-miterlimit="10" stroke-opacity="0.861579626875866" stroke-dasharray=""/><path fill="none" stroke="rgb(255,255,128)" paint-order="fill stroke markers" d=" M 49.991710976938066 45.951837424945374 L 2299.650197808729 657.388240798696" stroke-miterlimit="10" stroke-opacity="0.861579626875866" stroke-dasharray=""/><path fill="none" stroke="rgb(255,255,128)" paint-order="fill stroke markers" d=" M 59.95442262634403 53.77709457502424 L 2326.7781723609005 669.8788579017038" stroke-miterlimit="10" stroke-opacity="0.861579626875866" stroke-dasharray=""/><path fill="none" stroke="rgb(255,255,128)" paint-order="fill stroke markers" d=" M 69.91713427575002 61.60235172510312 L 2353.9061469130725 682.3694750047075" stroke-miterlimit="10" stroke-opacity="0.861579626875866" stroke-dasharray=""/><path fill="none" stroke="rgb(0,255,0)" paint-order="fill stroke markers" d=" M -32.901696392778824 40.8225314525498 L -21.604514933538844 86.20793146213985" stroke-miterlimit="10" stroke-width="4" stroke-dasharray=""/><path fill="none" stroke="rgb(128,128,128)" paint-order="fill stroke markers" d=" M -34.84247510258018 41.30562357583665 L -23.545293643340198 86.69102358542669" stroke-opacity="255" stroke-miterlimit="10" stroke-width="2" stroke-dasharray=""/><rect fill="indigo" stroke="none" x="19.070698557135145" y="21.23569676066381" width="3" height="3"/><rect fill="indigo" stroke="none" x="81.98187780827789" y="70.64956846337957" width="3" height="3"/></g></svg>

<svg xmlns="http://www.w3.org/2000/svg" width="101" height="100"><path d="M0 0h101v100H0z"/><path fill="none" stroke="#0F0" paint-order="fill stroke markers" d="m-32.902 40.823 11.297 45.385" stroke-miterlimit="10" stroke-width="4"/><path fill="none" stroke="gray" paint-order="fill stroke markers" d="m-34.842 41.306 11.297 45.385" stroke-opacity="255" stroke-miterlimit="10" stroke-width="2"/><path fill="#fff" paint-order="stroke fill markers" d="m-1771.672-1384.882 3585.486 2816.236L405.696 3224.097-3179.79 407.86" fill-opacity=".2"/><path fill="indigo" d="M19.071 21.236h3v3h-3zM81.982 70.65h3v3h-3z"/><path fill="none" stroke="#FFFF80" paint-order="fill stroke markers" d="M-33.635 46.158 30.066 30.3M-31.22 55.861 40.03 38.127M-28.804 65.565l78.796-19.613M-26.388 75.27l86.342-21.493M-23.973 84.973l93.89-23.37" stroke-miterlimit="10"/><path fill="none" stroke="#FFFF80" paint-order="fill stroke markers" d="M30.066 30.301 19.094 2325.97M40.029 38.127 28.971 2351.582M49.992 45.952 38.849 2377.195M59.954 53.777l-11.227 2349.03M69.917 61.602 58.604 2428.421" stroke-miterlimit="10" stroke-opacity=".138"/><path fill="none" stroke="#FFFF80" paint-order="fill stroke markers" d="m30.066 30.301 2215.328 602.106M40.029 38.127l2232.493 606.77M49.992 45.952 2299.65 657.388M59.954 53.777 2326.778 669.88M69.917 61.602l2283.99 620.767" stroke-miterlimit="10" stroke-opacity=".862"/><path fill="none" stroke="#0F0" paint-order="fill stroke markers" d="m-32.902 40.823 11.297 45.385" stroke-miterlimit="10" stroke-width="4"/><path fill="none" stroke="gray" paint-order="fill stroke markers" d="m-34.842 41.306 11.297 45.385" stroke-opacity="255" stroke-miterlimit="10" stroke-width="2"/><path fill="indigo" d="M19.071 21.236h3v3h-3zM81.982 70.65h3v3h-3z"/></svg>
